X: 1030
T: Hicaz Örnek-öz
C: Rûhî Ayangil
O: Turkey
F: http://compmusic.upf.edu/node/140
N: hicaz--ornek-oz--sofyan--1--ruhi_ayangil
N: makam= hicaz
N: form= ornek-oz
N: usul= sofyan = 4/4
M: 4/4
L: 1/16
K: C _7/8B ^f ^c 
Q: 1/4=60
%%MIDI tuningsystem comma53
e2c2 d2B2 c2A2 B2G2  | A2B2 c2e2 d4 f4  | \
w:   |   | 
a2f2 g2e2 =f2d2 e2c2  | 
w:   | 
d2B2 c2B2 A8  | |


